X: 1
T: Harlequin, The
M: 4/4
L: 1/8
R: hornpipe
K: Gmaj
|:Bc | dBgd egdB | G3A BGDc | BDGA BdcB | BAAG A2 Bc |
dBgd egdB | G3A BGDc | BDGB cADF | (3ABA GF G2 :|
|:Bc | dgBg dgBc | dG (3Bcd gdBG | A3B cBce | af (3gfe d3c |
B3c dBGg | (3efg fa gedc | BG (3Bcd ecAF | AGGF G2 :|
